X: 10679
T: Down The Glen
R: hornpipe
M: 4/4
K: Dmajor
|:(3GFE|(3DED F>A B>G (3Bcd|(3DED F>A d2 c>d|e>Ac>e f>df>a|e>dc>B A>G (3GFE|
D2 F>A B2 (3Bcd|(3DED F>A d2 (3Bcd|e>Ac>e f>g (3edc|d2 [d2f2] d2:|
|:c>d|e>Ac>e f>d (3f^ga|e>A (3cde f2 (3f^ga|e>a^g>f (3efe (3dcB|(3ABA (3^GAB (3ABA =G2|
F>D (3FGA d>fa>f|g2 B2 b2 (3bag|f>af>d (3cBA (3GFE|D2 [D2F2] D2:|

